X:40
T: AN DER SAALE HELLEM STRANDE
N: B0527
O: Europa, Mitteleuropa, Deutschland
R: Wander - Lied
M: 3/4
L: 1/8
K: G
GA | B2B2AG | A2A2
GA | Bcd2cB | A2z2
de | dcA2AA | B2d2
de | dcA2AA | B2d2
ec | BdB2A2 | G2z2

